<?xml version="1.0" encoding="UTF-8"?>
<map version="1.8" tiledversion="1.8.4" orientation="orthogonal" renderorder="right-down" width="36" height="35" tilewidth="16" tileheight="16" infinite="0" nextlayerid="10" nextobjectid="1">
 <tileset firstgid="1" source="SunnyTileset.tsx"/>
 <tileset firstgid="4097" source="Collision.tsx"/>
 <layer id="1" name="Water" width="36" height="35">
  <data encoding="csv">
651,648,651,715,651,716,652,715,716,648,648,648,648,715,652,652,651,651,652,651,715,716,648,648,652,716,648,648,715,652,652,652,715,648,651,652,
651,651,712,712,712,712,712,712,712,712,712,712,712,712,712,712,648,712,712,648,712,712,712,712,712,712,712,712,712,712,712,712,712,712,716,652,
716,649,716,716,651,651,651,648,651,648,715,716,651,652,652,651,716,716,651,648,716,715,651,648,648,715,651,652,716,715,651,652,651,715,647,648,
648,649,716,651,651,652,648,716,715,652,716,716,715,716,715,652,651,648,715,651,652,715,652,716,716,715,648,651,651,652,648,648,716,716,647,648,
652,649,651,715,651,651,648,648,648,716,652,715,648,651,716,715,715,715,651,716,648,716,715,715,652,652,716,652,716,715,651,716,715,652,647,715,
648,649,652,648,652,652,715,716,715,716,651,716,651,715,652,715,716,716,716,652,651,652,652,651,651,652,648,651,652,652,715,651,651,651,647,648,
648,649,652,716,715,651,652,715,652,651,715,651,651,652,648,715,651,648,648,652,648,651,715,716,716,652,648,651,651,716,715,652,652,648,647,652,
715,649,648,716,648,652,651,648,715,715,715,651,652,715,651,716,652,716,652,715,652,648,651,715,651,715,716,715,651,651,648,648,651,652,647,652,
715,649,716,715,716,652,716,652,652,651,648,716,715,651,715,716,716,715,716,652,715,716,715,716,648,715,715,651,651,652,652,715,651,715,647,651,
715,649,652,652,715,715,648,715,648,716,715,651,648,715,648,716,715,652,651,648,716,716,716,716,652,652,651,715,648,652,648,648,651,652,647,715,
652,649,648,648,648,648,651,648,715,716,715,715,652,715,715,716,715,715,651,648,648,652,652,715,715,651,648,648,651,652,651,652,652,715,647,715,
648,649,648,652,651,716,715,648,715,648,715,651,715,651,651,648,716,648,715,651,651,715,715,651,648,648,648,652,651,652,716,652,716,715,647,648,
651,649,715,648,648,715,652,715,715,651,716,716,648,715,652,716,715,716,716,715,652,651,651,651,652,648,651,652,651,648,716,716,716,716,647,715,
651,649,652,716,648,716,716,648,652,715,715,648,652,648,715,652,651,715,648,651,651,651,715,715,715,715,715,715,715,716,715,651,715,651,647,715,
715,649,652,652,715,648,716,648,652,652,648,651,652,652,652,652,652,716,651,651,716,652,648,651,716,648,715,652,652,715,652,648,651,652,647,651,
651,648,648,716,652,651,716,648,651,651,715,716,652,648,652,716,652,652,651,651,651,715,715,716,715,715,652,715,716,652,716,648,651,716,648,651,
651,715,649,648,648,652,648,652,648,716,651,715,715,651,715,715,648,652,648,716,652,648,648,715,651,715,715,648,648,648,648,715,648,647,716,716,
652,716,649,651,715,652,648,652,652,651,716,715,648,651,651,715,652,651,716,715,648,648,651,648,715,715,651,648,648,715,652,648,651,647,715,648,
652,648,715,716,715,651,716,652,651,715,652,651,651,716,648,716,648,715,652,715,648,715,648,652,651,652,651,652,652,648,651,652,715,652,648,652,
648,649,648,716,715,651,716,648,652,648,648,651,648,648,715,652,652,652,651,715,648,648,648,652,651,651,715,652,651,716,715,652,716,648,647,715,
715,649,648,651,651,652,715,648,651,651,652,648,652,652,716,716,648,716,648,648,651,651,651,715,648,651,715,651,652,651,651,648,652,648,647,715,
651,649,716,648,648,651,716,651,715,652,652,716,651,652,716,651,652,648,652,715,648,652,715,716,651,651,651,652,715,715,715,652,648,651,647,652,
648,649,648,648,715,652,651,652,652,715,715,652,715,648,648,651,652,652,716,715,716,652,651,648,652,652,651,715,648,652,716,716,715,651,647,652,
652,649,715,652,652,716,648,715,648,651,716,652,715,716,648,715,716,716,648,648,652,648,651,652,651,648,652,651,652,652,715,648,715,652,647,648,
652,649,648,648,715,716,648,652,648,715,651,652,651,715,648,651,715,715,648,652,648,651,651,652,651,652,715,716,715,716,715,651,651,715,647,651,
652,649,716,648,715,648,652,716,651,716,652,648,716,715,715,652,715,648,652,651,648,716,652,652,716,715,716,648,648,648,716,715,652,716,647,651,
651,649,716,648,648,651,716,648,715,652,716,652,715,716,715,716,648,652,648,648,648,648,716,715,715,652,715,716,652,652,648,648,716,648,647,652,
652,649,716,715,648,716,648,651,648,651,716,648,648,716,715,648,648,651,715,651,716,652,716,715,715,715,648,651,648,716,648,651,716,651,647,716,
716,649,651,648,651,648,716,651,648,716,715,648,715,648,651,715,648,652,716,716,651,652,651,716,716,716,715,716,716,715,652,648,716,648,647,651,
651,649,652,716,715,716,715,716,716,716,652,715,716,715,651,651,652,716,715,652,648,715,651,716,648,716,716,715,716,648,648,716,648,648,647,652,
648,649,652,716,652,652,648,648,715,716,715,715,715,651,651,716,716,648,652,651,715,716,651,715,651,716,652,652,716,716,652,716,652,651,647,652,
651,649,652,651,651,648,716,648,716,652,716,715,716,716,651,715,715,715,651,716,651,648,648,716,716,715,652,651,652,715,648,648,716,651,647,715,
652,652,651,648,648,651,648,715,716,652,648,651,648,648,716,652,651,648,648,715,716,716,715,652,648,648,716,648,652,652,652,651,648,648,716,652,
648,716,715,652,715,715,716,648,716,716,652,648,648,648,715,651,716,715,716,715,648,651,651,652,716,715,715,716,651,651,652,716,652,715,651,648,
716,652,716,715,716,651,651,715,716,715,652,651,716,716,652,652,648,715,715,648,648,652,648,715,651,715,716,648,651,652,651,652,648,716,652,648
</data>
 </layer>
 <layer id="2" name="Land" width="36" height="35">
  <data encoding="csv">
260,260,260,260,260,260,260,260,260,260,260,260,260,260,260,260,260,260,260,260,260,260,260,260,260,260,260,260,260,260,260,260,260,260,260,260,
260,0,0,0,0,0,0,0,0,0,0,0,0,0,0,0,0,715,716,0,0,0,0,0,0,0,0,0,0,0,0,0,0,0,0,260,
260,0,260,260,260,260,260,260,260,260,260,260,260,260,260,260,198,712,712,194,260,260,260,260,260,260,260,260,260,260,260,260,260,260,0,260,
260,0,260,260,260,260,260,260,260,260,260,260,260,260,260,260,260,209,272,260,260,260,260,260,260,260,260,260,260,260,260,260,260,260,0,260,
260,0,260,260,260,260,260,260,260,260,260,260,260,260,260,260,260,272,337,260,260,260,260,260,260,260,260,260,260,260,260,260,260,260,0,260,
260,0,260,260,260,260,260,260,260,260,260,260,260,260,260,260,260,272,337,260,260,260,260,260,260,260,260,260,260,260,260,260,260,260,0,260,
260,0,260,260,260,260,260,260,260,260,260,260,260,260,260,260,260,272,337,260,260,260,260,260,260,260,260,260,260,260,260,260,260,260,0,260,
260,0,260,260,260,260,260,260,260,260,260,260,260,260,260,260,260,209,337,260,260,260,260,260,260,260,260,260,260,260,260,260,260,260,0,260,
260,0,260,260,260,260,260,260,260,260,260,260,260,260,260,260,260,273,337,260,260,260,260,260,260,260,260,260,260,260,260,260,260,260,0,260,
260,0,260,260,260,260,260,260,260,260,260,260,260,260,260,260,260,272,209,260,260,260,260,260,260,260,260,260,260,260,260,260,260,260,0,260,
260,0,260,260,260,260,260,260,260,260,260,260,260,260,260,260,260,209,209,260,260,260,260,260,260,260,260,260,260,260,260,260,260,260,0,260,
260,0,260,260,260,260,260,260,260,260,260,260,260,260,260,260,260,273,273,260,260,260,260,260,260,260,260,260,260,260,260,260,260,260,0,260,
260,0,260,260,260,260,260,260,260,260,260,260,260,260,260,260,260,337,337,260,260,260,260,260,260,260,260,260,260,260,260,260,260,260,0,260,
260,0,260,260,260,260,260,260,260,260,260,260,260,260,260,260,260,273,337,260,260,260,260,260,260,260,260,260,260,260,260,260,260,260,0,260,
260,0,260,260,260,260,260,260,260,260,260,260,260,260,260,260,260,337,337,260,260,260,260,260,260,260,260,260,260,260,260,260,260,260,0,260,
260,0,203,260,260,260,260,260,260,260,260,260,260,260,260,260,260,337,209,260,260,260,260,260,260,260,260,260,260,260,260,260,260,205,0,260,
260,0,0,274,274,272,273,273,337,209,272,337,337,272,272,274,272,272,272,209,209,273,273,337,272,209,337,337,209,272,274,337,273,0,0,260,
260,0,0,273,272,337,209,209,337,209,273,272,274,273,337,209,273,274,274,337,273,272,272,209,337,337,274,273,337,272,273,337,209,0,0,260,
260,0,194,260,260,260,260,260,260,260,260,260,260,260,260,260,260,337,209,260,260,260,260,260,260,260,260,260,260,260,260,260,260,198,0,260,
260,0,260,260,260,260,260,260,260,260,260,260,260,260,260,260,260,274,272,260,260,260,260,260,260,260,260,260,260,260,260,260,260,260,0,260,
260,0,260,260,260,260,260,260,260,260,260,260,260,260,260,260,260,209,209,260,260,260,260,260,260,260,260,260,260,260,260,260,260,260,0,260,
260,0,260,260,260,260,260,260,260,260,260,260,260,260,260,260,260,209,272,260,260,260,260,260,260,260,260,260,260,260,260,260,260,260,0,260,
260,0,260,260,260,260,260,260,260,260,260,260,260,260,260,260,260,272,273,260,260,260,260,260,260,260,260,260,260,260,260,260,260,260,0,260,
260,0,260,260,260,260,260,260,260,260,260,260,260,260,260,260,260,274,274,260,260,260,260,260,260,260,260,260,260,260,260,260,260,260,0,260,
260,0,260,260,260,260,260,260,260,260,260,260,260,260,260,260,260,209,273,260,260,260,260,260,260,260,260,260,260,260,260,260,260,260,0,260,
260,0,260,260,260,260,260,260,260,260,260,260,260,260,260,260,260,337,209,260,260,260,260,260,260,260,260,260,260,260,260,260,260,260,0,260,
260,0,260,260,260,260,260,260,260,260,260,260,260,260,260,260,260,274,272,260,260,260,260,260,260,260,260,260,260,260,260,260,260,260,0,260,
260,0,260,260,260,260,260,260,260,260,260,260,260,260,260,260,260,209,272,260,260,260,260,260,260,260,260,260,260,260,260,260,260,260,0,260,
260,0,260,260,260,260,260,260,260,260,260,260,260,260,260,260,260,337,272,260,260,260,260,260,260,260,260,260,260,260,260,260,260,260,0,260,
260,0,260,260,260,260,260,260,260,260,260,260,260,260,260,260,260,272,337,260,260,260,260,260,260,260,260,260,260,260,260,260,260,260,0,260,
260,0,260,260,260,260,260,260,260,260,260,260,260,260,260,260,260,209,209,260,260,260,260,260,260,260,260,260,260,260,260,260,260,260,0,260,
260,0,260,260,260,260,260,260,260,260,260,260,260,260,260,260,260,273,274,260,260,260,260,260,260,260,260,260,260,260,260,260,260,260,0,260,
260,0,520,520,520,520,520,520,520,520,520,520,520,520,520,520,520,0,0,520,520,520,520,520,520,520,520,520,520,520,520,520,520,520,0,260,
260,0,0,0,0,0,0,0,0,0,0,0,0,0,0,0,0,0,0,0,0,0,0,0,0,0,0,0,0,0,0,0,0,0,0,260,
260,260,260,260,260,260,260,260,260,260,260,260,260,260,260,260,260,260,260,260,260,260,260,260,260,260,260,260,260,260,260,260,260,260,260,260
</data>
 </layer>
 <layer id="8" name="HousePath" width="36" height="35">
  <data encoding="csv">
0,0,0,0,0,0,0,0,0,0,0,0,0,0,0,0,0,0,0,0,0,0,0,0,0,0,0,0,0,0,0,0,0,0,0,0,
0,0,0,0,0,0,0,0,0,0,0,0,0,0,0,0,0,0,0,0,0,0,0,0,0,0,0,0,0,0,0,0,0,0,0,0,
0,0,0,0,0,0,0,0,2147483793,0,0,0,0,0,0,0,0,0,0,0,0,0,0,0,0,0,0,145,0,0,0,0,0,0,0,0,
0,0,0,0,0,0,0,2147483923,2147483857,2147483919,0,0,0,0,0,0,271,0,0,275,0,0,0,0,0,0,271,209,275,0,0,0,0,0,0,0,
0,0,0,0,2147483793,0,0,2147483923,2147483857,2147483919,0,0,0,0,0,0,271,0,0,275,0,0,0,0,0,0,271,209,275,0,0,145,0,0,0,0,
0,0,0,2147483793,2147483857,2147483793,2147483793,2147483858,2147483857,2147483919,0,0,0,0,0,0,271,0,0,275,0,0,0,0,0,0,271,209,210,145,145,209,145,0,0,0,
0,0,2147483923,2147483985,2147483857,2147483921,2147483921,2147483985,2147483984,0,0,0,0,0,0,0,271,0,0,275,0,0,0,0,0,0,0,336,337,273,273,209,337,275,0,0,
0,0,0,2147484049,2147484049,2147484049,2147484049,2147484049,0,0,0,0,0,0,0,0,271,0,0,275,0,0,0,0,0,0,0,0,401,401,401,401,401,0,0,0,
0,0,0,0,0,0,0,0,0,0,0,0,0,0,0,0,271,0,0,275,0,0,0,0,0,0,0,0,0,0,0,0,0,0,0,0,
0,0,0,0,0,0,0,0,0,0,0,0,0,0,0,0,271,0,0,275,0,0,0,0,0,0,0,0,0,0,0,0,0,0,0,0,
0,0,0,0,0,0,0,0,0,0,0,0,0,0,0,0,271,0,0,275,0,0,0,0,0,0,0,0,0,0,0,0,0,0,0,0,
0,0,0,0,0,0,0,0,0,0,0,0,0,0,0,0,271,0,0,275,0,0,0,0,0,0,0,0,0,0,0,0,0,0,0,0,
0,0,0,0,0,0,0,0,0,0,0,0,0,0,0,0,271,0,0,275,0,0,0,0,0,0,0,0,0,0,0,0,0,0,0,0,
0,0,0,0,0,0,0,0,0,0,0,0,0,0,0,0,271,0,0,275,0,0,0,0,0,0,0,0,0,0,0,0,0,0,0,0,
0,0,0,0,0,0,0,0,0,0,0,0,0,0,0,0,271,0,0,275,0,0,0,0,0,0,0,0,0,0,0,0,0,0,0,0,
0,0,0,145,145,145,145,145,145,145,145,145,145,145,145,145,208,0,0,210,145,145,145,145,145,145,145,145,145,145,145,145,145,0,0,0,
0,0,0,0,0,0,0,0,0,0,0,0,0,0,0,0,0,0,0,0,0,0,0,0,0,0,0,0,0,0,0,0,0,0,0,0,
0,0,0,0,0,0,0,0,0,0,0,0,0,0,0,0,0,0,0,0,0,0,0,0,0,0,0,0,0,0,0,0,0,0,0,0,
0,0,0,401,401,401,401,401,401,401,401,401,401,401,401,401,336,0,0,338,401,401,401,401,401,401,401,401,401,401,401,401,401,401,0,0,
0,0,0,0,0,0,0,0,0,0,0,0,0,0,0,0,271,0,0,275,0,0,0,0,0,0,0,0,0,0,0,0,0,0,0,0,
0,0,0,0,0,0,0,0,0,0,0,0,0,0,0,0,271,0,0,275,0,0,0,0,0,0,0,0,0,0,0,0,0,0,0,0,
0,0,0,0,0,0,0,0,0,0,0,0,0,0,0,0,271,0,0,275,0,0,0,0,0,0,0,0,0,0,0,0,0,0,0,0,
0,0,0,0,0,0,0,0,0,0,0,0,0,0,0,0,271,0,0,275,0,0,0,0,0,0,0,0,0,0,0,0,0,0,0,0,
0,0,0,0,0,0,0,0,0,0,0,0,0,0,0,0,271,0,0,275,0,0,0,0,0,0,0,0,0,0,0,0,0,0,0,0,
0,0,0,0,0,0,0,0,0,0,0,0,0,0,0,0,271,0,0,275,0,0,0,0,0,0,0,0,0,0,0,0,0,0,0,0,
0,0,0,0,0,0,0,0,0,0,0,0,0,0,0,0,271,0,0,275,0,0,0,0,0,0,0,0,0,0,0,0,0,0,0,0,
0,0,0,3221225873,3221225873,3221225873,3221225873,3221225873,0,0,0,0,0,0,0,0,271,0,0,275,0,0,0,0,0,0,0,0,1073742225,1073742225,1073742225,1073742225,1073742225,0,0,0,
0,0,3221225747,3221225809,3221225681,3221225745,3221225745,3221225809,3221225808,0,0,0,0,0,0,0,271,0,0,275,0,0,0,0,0,0,0,1073742160,1073742161,1073742097,1073742097,1073742033,1073742161,1073742099,0,0,
0,0,0,3221225617,3221225681,3221225617,3221225617,3221225682,3221225681,3221225743,0,0,0,0,0,0,271,0,0,275,0,0,0,0,0,0,1073742095,1073742033,1073742034,1073741969,1073741969,1073742033,1073741969,0,0,0,
0,0,0,0,3221225617,0,0,3221225747,3221225681,3221225743,0,0,0,0,0,0,271,0,0,275,0,0,0,0,0,0,1073742095,1073742033,1073742099,0,0,1073741969,0,0,0,0,
0,0,0,0,0,0,0,3221225747,3221225681,3221225743,0,0,0,0,0,0,271,0,0,275,0,0,0,0,0,0,1073742095,1073742033,1073742099,0,0,0,0,0,0,0,
0,0,0,0,0,0,0,0,3221225617,0,0,0,0,0,0,0,271,0,0,275,0,0,0,0,0,0,0,1073741969,0,0,0,0,0,0,0,0,
0,0,0,0,0,0,0,0,0,0,0,0,0,0,0,0,0,0,0,0,0,0,0,0,0,0,0,0,0,0,0,0,0,0,0,0,
0,0,0,0,0,0,0,0,0,0,0,0,0,0,0,0,0,0,0,0,0,0,0,0,0,0,0,0,0,0,0,0,0,0,0,0,
0,0,0,0,0,0,0,0,0,0,0,0,0,0,0,0,0,0,0,0,0,0,0,0,0,0,0,0,0,0,0,0,0,0,0,0
</data>
 </layer>
 <layer id="9" name="FarmableArea" width="36" height="35" visible="0">
  <data encoding="csv">
0,0,0,0,0,0,0,0,0,0,0,0,0,0,0,0,0,0,0,0,0,0,0,0,0,0,0,0,0,0,0,0,0,0,0,0,
0,0,0,0,0,0,0,0,0,0,0,0,0,0,0,0,0,0,0,0,0,0,0,0,0,0,0,0,0,0,0,0,0,0,0,0,
0,0,0,0,0,0,0,0,0,0,0,0,0,0,0,0,0,0,0,0,0,0,0,0,0,0,0,0,0,0,0,0,0,0,0,0,
0,0,0,0,0,0,0,0,0,0,195,706,706,260,196,324,0,0,0,0,2147483972,2147483844,2147483908,2147484354,2147484354,2147483843,0,0,0,0,0,0,0,0,0,0,
0,0,0,0,0,0,0,0,0,0,707,709,708,261,260,323,0,0,0,0,2147483971,2147483908,2147483909,2147484356,2147484357,2147484355,0,0,0,0,0,0,0,0,0,0,
0,0,0,0,0,0,0,0,0,0,708,261,261,323,262,196,0,0,0,0,2147483844,2147483910,2147483971,2147483909,2147483909,2147484356,0,0,0,0,0,0,0,0,0,0,
0,0,0,0,0,0,0,0,0,0,708,197,325,197,709,258,0,0,0,0,2147483906,2147484357,2147483845,2147483973,2147483845,2147484356,0,0,0,0,0,0,0,0,0,0,
0,0,0,0,0,0,0,0,0,642,259,259,324,642,262,709,0,0,0,0,2147484357,2147483910,2147484290,2147483972,2147483907,2147483907,2147484290,0,0,0,0,0,0,0,0,0,
0,0,0,197,261,197,707,324,324,259,706,197,261,642,709,642,0,0,0,0,2147484290,2147484357,2147484290,2147483909,2147483845,2147484354,2147483907,2147483972,2147483972,2147484355,2147483845,2147483909,2147483845,0,0,0,
0,0,0,261,708,195,261,260,324,643,709,709,197,197,324,260,0,0,0,0,2147483908,2147483972,2147483845,2147483845,2147484357,2147484357,2147484291,2147483972,2147483908,2147483909,2147483843,2147484356,2147483909,0,0,0,
0,0,0,324,323,261,709,195,261,259,324,706,260,707,707,323,0,0,0,0,2147483971,2147484355,2147484355,2147483908,2147484354,2147483972,2147483907,2147483909,2147483843,2147484357,2147483909,2147483971,2147483972,0,0,0,
0,0,0,195,258,709,195,325,324,262,324,260,258,196,259,643,0,0,0,0,2147484291,2147483907,2147483844,2147483906,2147483908,2147483972,2147483910,2147483972,2147483973,2147483843,2147484357,2147483906,2147483843,0,0,0,
0,0,0,709,707,197,259,709,260,197,707,262,197,258,261,324,0,0,0,0,2147483972,2147483909,2147483906,2147483845,2147483910,2147484355,2147483845,2147483908,2147484357,2147483907,2147483845,2147484355,2147484357,0,0,0,
0,0,0,642,707,643,197,197,708,259,196,261,707,197,324,707,0,0,0,0,2147484355,2147483972,2147483845,2147484355,2147483909,2147483844,2147483907,2147484356,2147483845,2147483845,2147484291,2147484355,2147484290,0,0,0,
0,0,0,325,325,706,258,260,261,196,260,706,262,706,260,262,0,0,0,0,2147483910,2147483908,2147484354,2147483910,2147484354,2147483908,2147483844,2147483909,2147483908,2147483906,2147484354,2147483973,2147483973,0,0,0,
0,0,0,0,0,0,0,0,0,0,0,0,0,0,0,0,0,0,0,0,0,0,0,0,0,0,0,0,0,0,0,0,0,0,0,0,
0,0,0,0,0,0,0,0,0,0,0,0,0,0,0,0,0,0,0,0,0,0,0,0,0,0,0,0,0,0,0,0,0,0,0,0,
0,0,0,0,0,0,0,0,0,0,0,0,0,0,0,0,0,0,0,0,0,0,0,0,0,0,0,0,0,0,0,0,0,0,0,0,
0,0,0,0,0,0,0,0,0,0,0,0,0,0,0,0,0,0,0,0,0,0,0,0,0,0,0,0,0,0,0,0,0,0,0,0,
0,0,0,1073742149,1073742149,1073742530,1073742082,1073742084,1073742085,1073742020,1073742084,1073742530,1073742086,1073742530,1073742084,1073742086,0,0,0,0,3221225734,3221225732,3221226178,3221225734,3221226178,3221225732,3221225668,3221225733,3221225732,3221225730,3221226178,3221225797,3221225797,0,0,0,
0,0,0,1073742466,1073742531,1073742467,1073742021,1073742021,1073742532,1073742083,1073742020,1073742085,1073742531,1073742021,1073742148,1073742531,0,0,0,0,3221226179,3221225796,3221225669,3221226179,3221225733,3221225668,3221225731,3221226180,3221225669,3221225669,3221226115,3221226179,3221226114,0,0,0,
0,0,0,1073742533,1073742531,1073742021,1073742083,1073742533,1073742084,1073742021,1073742531,1073742086,1073742021,1073742082,1073742085,1073742148,0,0,0,0,3221225796,3221225733,3221225730,3221225669,3221225734,3221226179,3221225669,3221225732,3221226181,3221225731,3221225669,3221226179,3221226181,0,0,0,
0,0,0,1073742019,1073742082,1073742533,1073742019,1073742149,1073742148,1073742086,1073742148,1073742084,1073742082,1073742020,1073742083,1073742467,0,0,0,0,3221226115,3221225731,3221225668,3221225730,3221225732,3221225796,3221225734,3221225796,3221225797,3221225667,3221226181,3221225730,3221225667,0,0,0,
0,0,0,1073742148,1073742147,1073742085,1073742533,1073742019,1073742085,1073742083,1073742148,1073742530,1073742084,1073742531,1073742531,1073742147,0,0,0,0,3221225795,3221226179,3221226179,3221225732,3221226178,3221225796,3221225731,3221225733,3221225667,3221226181,3221225733,3221225795,3221225796,0,0,0,
0,0,0,1073742085,1073742532,1073742019,1073742085,1073742084,1073742148,1073742467,1073742533,1073742533,1073742021,1073742021,1073742148,1073742084,0,0,0,0,3221225732,3221225796,3221225669,3221225669,3221226181,3221226181,3221226115,3221225796,3221225732,3221225733,3221225667,3221226180,3221225733,0,0,0,
0,0,0,1073742021,1073742085,1073742021,1073742531,1073742148,1073742148,1073742083,1073742530,1073742021,1073742085,1073742466,1073742533,1073742466,0,0,0,0,3221226114,3221226181,3221226114,3221225733,3221225669,3221226178,3221225731,3221225796,3221225796,3221226179,3221225669,3221225733,3221225669,0,0,0,
0,0,0,0,0,0,0,0,0,1073742466,1073742083,1073742083,1073742148,1073742466,1073742086,1073742533,0,0,0,0,3221226181,3221225734,3221226114,3221225796,3221225731,3221225731,3221226114,0,0,0,0,0,0,0,0,0,
0,0,0,0,0,0,0,0,0,0,1073742532,1073742021,1073742149,1073742021,1073742533,1073742082,0,0,0,0,3221225730,3221226181,3221225669,3221225797,3221225669,3221226180,0,0,0,0,0,0,0,0,0,0,
0,0,0,0,0,0,0,0,0,0,1073742532,1073742085,1073742085,1073742147,1073742086,1073742020,0,0,0,0,3221225668,3221225734,3221225795,3221225733,3221225733,3221226180,0,0,0,0,0,0,0,0,0,0,
0,0,0,0,0,0,0,0,0,0,1073742531,1073742533,1073742532,1073742085,1073742084,1073742147,0,0,0,0,3221225795,3221225732,3221225733,3221226180,3221226181,3221226179,0,0,0,0,0,0,0,0,0,0,
0,0,0,0,0,0,0,0,0,0,1073742019,1073742530,1073742530,1073742084,1073742020,1073742148,0,0,0,0,3221225796,3221225668,3221225732,3221226178,3221226178,3221225667,0,0,0,0,0,0,0,0,0,0,
0,0,0,0,0,0,0,0,0,0,0,0,0,0,0,0,0,0,0,0,0,0,0,0,0,0,0,0,0,0,0,0,0,0,0,0,
0,0,0,0,0,0,0,0,0,0,0,0,0,0,0,0,0,0,0,0,0,0,0,0,0,0,0,0,0,0,0,0,0,0,0,0,
0,0,0,0,0,0,0,0,0,0,0,0,0,0,0,0,0,0,0,0,0,0,0,0,0,0,0,0,0,0,0,0,0,0,0,0,
0,0,0,0,0,0,0,0,0,0,0,0,0,0,0,0,0,0,0,0,0,0,0,0,0,0,0,0,0,0,0,0,0,0,0,0
</data>
 </layer>
 <layer id="4" name="Fence" width="36" height="35">
  <data encoding="csv">
0,0,0,0,0,0,0,0,0,0,0,0,0,0,0,0,0,0,0,0,0,0,0,0,0,0,0,0,0,0,0,0,0,0,0,0,
0,0,0,0,0,0,0,0,0,0,0,0,0,0,0,0,0,0,0,0,0,0,0,0,0,0,0,0,0,0,0,0,0,0,0,0,
0,0,1026,1027,1027,1027,1027,1027,1027,1027,1027,1027,1027,1027,1027,1027,965,0,0,966,1029,1029,1029,1029,1029,1029,1029,1029,1029,1029,1029,1029,1029,1030,0,0,
0,0,0,0,0,0,0,0,0,0,0,0,0,0,0,0,1092,0,0,1092,0,0,0,0,0,0,0,0,0,0,0,0,0,0,0,0,
0,0,0,0,0,0,0,0,0,0,0,0,0,0,0,0,1092,0,0,1092,0,0,0,0,0,0,0,0,0,0,0,0,0,0,0,0,
0,0,964,0,0,0,0,0,0,0,0,0,0,0,0,0,1092,0,0,1092,0,0,0,0,0,0,0,0,0,0,0,0,0,964,0,0,
0,0,1092,0,0,0,0,0,0,0,0,0,0,0,0,0,1092,0,0,1092,0,0,0,0,0,0,0,0,0,0,0,0,0,1092,0,0,
0,0,1092,0,0,0,0,0,0,0,0,0,0,0,0,0,1092,0,0,1092,0,0,0,0,0,0,0,0,0,0,0,0,0,1092,0,0,
0,0,1092,0,0,0,0,0,0,0,0,0,0,0,0,0,1092,0,0,1092,0,0,0,0,0,0,0,0,0,0,0,0,0,1092,0,0,
0,0,1092,0,0,0,0,0,0,0,0,0,0,0,0,0,1092,0,0,1092,0,0,0,0,0,0,0,0,0,0,0,0,0,1092,0,0,
0,0,1092,0,0,0,0,0,0,0,0,0,0,0,0,0,1092,0,0,1092,0,0,0,0,0,0,0,0,0,0,0,0,0,1092,0,0,
0,0,1092,0,0,0,0,0,0,0,0,0,0,0,0,0,1092,0,0,1092,0,0,0,0,0,0,0,0,0,0,0,0,0,1092,0,0,
0,0,1092,0,0,0,0,0,0,0,0,0,0,0,0,0,1092,0,0,1092,0,0,0,0,0,0,0,0,0,0,0,0,0,1092,0,0,
0,0,1092,0,0,0,0,0,0,0,0,0,0,0,0,0,1156,0,0,1156,0,0,0,0,0,0,0,0,0,0,0,0,0,1092,0,0,
0,0,1092,0,0,0,0,0,0,0,0,0,0,0,0,0,0,0,0,0,0,0,0,0,0,0,0,0,0,0,0,0,0,1092,0,0,
0,0,963,1029,1029,1029,1029,1029,1029,1029,1029,1029,1029,1029,1030,0,0,0,0,0,0,1026,1029,1029,1029,1029,1029,1029,1029,1029,1029,1029,1029,962,0,0,
0,0,0,0,0,0,0,0,0,0,0,0,0,0,0,0,0,0,0,0,0,0,0,0,0,0,0,0,0,0,0,0,0,0,0,0,
0,0,0,0,0,0,0,0,0,0,0,0,0,0,0,0,0,0,0,0,0,0,0,0,0,0,0,0,0,0,0,0,0,0,0,0,
0,0,966,1029,1029,1029,1029,1029,1029,1029,1029,1029,1029,1029,1030,0,0,0,0,0,0,1026,1029,1029,1029,1029,1029,1029,1029,1029,1029,1029,1029,965,0,0,
0,0,1092,0,0,0,0,0,0,0,0,0,0,0,0,0,0,0,0,0,0,0,0,0,0,0,0,0,0,0,0,0,0,1092,0,0,
0,0,1092,0,0,0,0,0,0,0,0,0,0,0,0,0,964,0,0,964,0,0,0,0,0,0,0,0,0,0,0,0,0,1092,0,0,
0,0,1092,0,0,0,0,0,0,0,0,0,0,0,0,0,1092,0,0,1092,0,0,0,0,0,0,0,0,0,0,0,0,0,1092,0,0,
0,0,1092,0,0,0,0,0,0,0,0,0,0,0,0,0,1092,0,0,1092,0,0,0,0,0,0,0,0,0,0,0,0,0,1092,0,0,
0,0,1092,0,0,0,0,0,0,0,0,0,0,0,0,0,1092,0,0,1092,0,0,0,0,0,0,0,0,0,0,0,0,0,1092,0,0,
0,0,1092,0,0,0,0,0,0,0,0,0,0,0,0,0,1092,0,0,1092,0,0,0,0,0,0,0,0,0,0,0,0,0,1092,0,0,
0,0,1092,0,0,0,0,0,0,0,0,0,0,0,0,0,1092,0,0,1092,0,0,0,0,0,0,0,0,0,0,0,0,0,1092,0,0,
0,0,1092,0,0,0,0,0,0,0,0,0,0,0,0,0,1092,0,0,1092,0,0,0,0,0,0,0,0,0,0,0,0,0,1092,0,0,
0,0,1092,0,0,0,0,0,0,0,0,0,0,0,0,0,1092,0,0,1092,0,0,0,0,0,0,0,0,0,0,0,0,0,1092,0,0,
0,0,1156,0,0,0,0,0,0,0,0,0,0,0,0,0,1092,0,0,1092,0,0,0,0,0,0,0,0,0,0,0,0,0,1156,0,0,
0,0,0,0,0,0,0,0,0,0,0,0,0,0,0,0,1092,0,0,1092,0,0,0,0,0,0,0,0,0,0,0,0,0,0,0,0,
0,0,0,0,0,0,0,0,0,0,0,0,0,0,0,0,1092,0,0,1092,0,0,0,0,0,0,0,0,0,0,0,0,0,0,0,0,
0,0,0,0,0,0,0,0,0,0,0,0,0,0,0,0,962,0,0,963,0,0,0,0,0,0,0,0,0,0,0,0,0,0,0,0,
0,0,0,0,0,0,0,0,0,0,0,0,0,0,0,0,0,0,0,0,0,0,0,0,0,0,0,0,0,0,0,0,0,0,0,0,
0,0,0,0,0,0,0,0,0,0,0,0,0,0,0,0,0,0,0,0,0,0,0,0,0,0,0,0,0,0,0,0,0,0,0,0,
0,0,0,0,0,0,0,0,0,0,0,0,0,0,0,0,0,0,0,0,0,0,0,0,0,0,0,0,0,0,0,0,0,0,0,0
</data>
 </layer>
 <layer id="3" name="Houses" width="36" height="35">
  <data encoding="csv">
0,158,159,160,161,162,163,0,0,0,0,0,0,0,0,0,0,0,0,0,0,0,0,0,0,0,0,0,158,159,160,161,162,163,0,0,
0,222,223,224,225,226,227,228,0,0,0,0,0,0,0,0,0,0,0,0,0,0,0,0,0,0,0,0,222,223,224,225,226,227,228,0,
0,0,351,352,353,354,355,0,0,0,0,0,0,0,0,0,0,0,0,0,0,0,0,0,0,0,0,0,0,351,352,353,354,355,0,0,
0,414,415,416,417,418,419,420,0,0,0,0,0,0,0,0,0,0,0,0,0,0,0,0,0,0,0,0,414,415,416,417,418,419,420,0,
0,0,479,480,481,482,483,0,0,0,0,0,0,0,0,0,0,0,0,0,0,0,0,0,0,0,0,0,0,479,480,481,482,483,0,0,
0,0,0,0,0,0,0,0,0,0,0,0,0,0,0,0,0,0,0,0,0,0,0,0,0,0,0,0,0,0,0,0,0,0,0,0,
0,0,0,0,0,0,0,0,0,0,0,0,0,0,0,0,0,0,0,0,0,0,0,0,0,0,0,0,0,0,0,0,0,0,0,0,
0,0,0,0,0,0,0,0,0,0,0,0,0,0,0,0,0,0,0,0,0,0,0,0,0,0,0,0,0,0,0,0,0,0,0,0,
0,0,0,0,0,0,0,0,0,0,0,0,0,0,0,0,0,0,0,0,0,0,0,0,0,0,0,0,0,0,0,0,0,0,0,0,
0,0,0,0,0,0,0,0,0,0,0,0,0,0,0,0,0,0,0,0,0,0,0,0,0,0,0,0,0,0,0,0,0,0,0,0,
0,0,0,0,0,0,0,0,0,0,0,0,0,0,0,0,0,0,0,0,0,0,0,0,0,0,0,0,0,0,0,0,0,0,0,0,
0,0,0,0,0,0,0,0,0,0,0,0,0,0,0,0,0,0,0,0,0,0,0,0,0,0,0,0,0,0,0,0,0,0,0,0,
0,0,0,0,0,0,0,0,0,0,0,0,0,0,0,0,0,0,0,0,0,0,0,0,0,0,0,0,0,0,0,0,0,0,0,0,
0,0,0,0,0,0,0,0,0,0,0,0,0,0,0,0,0,0,0,0,0,0,0,0,0,0,0,0,0,0,0,0,0,0,0,0,
0,0,0,0,0,0,0,0,0,0,0,0,0,0,0,0,0,0,0,0,0,0,0,0,0,0,0,0,0,0,0,0,0,0,0,0,
0,0,0,0,0,0,0,0,0,0,0,0,0,0,0,0,0,0,0,0,0,0,0,0,0,0,0,0,0,0,0,0,0,0,0,0,
0,0,0,0,0,0,0,0,0,0,0,0,0,0,0,0,0,0,0,0,0,0,0,0,0,0,0,0,158,159,0,0,0,0,164,0,
0,0,0,0,0,0,0,0,0,0,0,0,0,0,0,0,0,0,0,0,0,0,0,0,0,0,0,0,0,0,0,0,0,0,0,0,
0,0,0,0,0,0,0,0,0,0,0,0,0,0,0,0,0,0,0,0,0,0,0,0,0,0,0,0,0,0,0,0,0,0,0,0,
0,158,0,0,0,0,163,0,0,0,0,0,0,0,0,0,0,0,0,0,0,0,0,0,0,0,0,0,0,0,0,0,0,0,0,0,
0,0,0,0,0,0,0,0,0,0,0,0,0,0,0,0,0,0,0,0,0,0,0,0,0,0,0,0,0,0,0,0,0,0,0,0,
0,0,0,0,0,0,0,0,0,0,0,0,0,0,0,0,0,0,0,0,0,0,0,0,0,0,0,0,0,0,0,0,0,0,0,0,
0,0,0,0,0,0,0,0,0,0,0,0,0,0,0,0,0,0,0,0,0,0,0,0,0,0,0,0,0,0,0,0,0,0,0,0,
0,0,0,0,0,0,0,0,0,0,0,0,0,0,0,0,0,0,0,0,0,0,0,0,0,0,0,0,0,0,0,0,0,0,0,0,
0,0,0,0,0,0,0,0,0,0,0,0,0,0,0,0,0,0,0,0,0,0,0,0,0,0,0,0,0,0,0,0,0,0,0,0,
0,0,0,0,0,0,0,0,0,0,0,0,0,0,0,0,0,0,0,0,0,0,0,0,0,0,0,0,0,0,0,0,0,0,0,0,
0,0,0,0,0,0,0,0,0,0,0,0,0,0,0,0,0,0,0,0,0,0,0,0,0,0,0,0,0,0,0,0,0,0,0,0,
0,158,159,160,161,162,163,0,0,0,0,0,0,0,0,0,0,0,0,0,0,0,0,0,0,0,0,0,158,159,160,161,162,163,0,0,
0,222,223,224,225,226,227,228,0,0,0,0,0,0,0,0,0,0,0,0,0,0,0,0,0,0,0,0,222,223,224,225,226,227,228,0,
0,0,351,352,353,354,355,0,0,0,0,0,0,0,0,0,0,0,0,0,0,0,0,0,0,0,0,0,0,351,352,353,354,355,0,0,
0,414,415,416,417,418,419,420,0,0,0,0,0,0,0,0,0,0,0,0,0,0,0,0,0,0,0,0,414,415,416,417,418,419,420,0,
0,0,479,284,284,284,483,0,0,0,0,0,0,0,0,0,0,0,0,0,0,0,0,0,0,0,0,0,0,479,284,284,284,483,0,0,
0,0,0,0,0,0,0,0,0,0,0,0,0,0,0,0,0,0,0,0,0,0,0,0,0,0,0,0,0,0,0,0,0,0,0,0,
0,0,0,0,0,0,0,0,0,0,0,0,0,0,0,0,0,0,0,0,0,0,0,0,0,0,0,0,0,0,0,0,0,0,0,0,
0,0,0,0,0,0,0,0,0,0,0,0,0,0,0,0,0,0,0,0,0,0,0,0,0,0,0,0,0,0,0,0,0,0,0,0
</data>
 </layer>
 <layer id="5" name="FrontFence" width="36" height="35">
  <data encoding="csv">
0,0,0,0,0,0,0,0,0,0,0,0,0,0,0,0,0,0,0,0,0,0,0,0,0,0,0,0,0,0,0,0,0,0,0,0,
0,0,0,0,0,0,0,0,0,0,0,0,0,0,0,0,0,0,0,0,0,0,0,0,0,0,0,0,0,0,0,0,0,0,0,0,
0,0,0,0,0,0,0,0,0,0,0,0,0,0,0,0,0,0,0,0,0,0,0,0,0,0,0,0,0,0,0,0,0,0,0,0,
0,0,0,0,0,0,0,0,0,0,0,0,0,0,0,0,0,0,0,0,0,0,0,0,0,0,0,0,0,0,0,0,0,0,0,0,
0,0,0,0,0,0,0,0,0,0,0,0,0,0,0,0,0,0,0,0,0,0,0,0,0,0,0,0,0,0,0,0,0,0,0,0,
0,0,0,0,0,0,0,0,0,0,0,0,0,0,0,0,0,0,0,0,0,0,0,0,0,0,0,0,0,0,0,0,0,0,0,0,
0,0,0,0,0,0,0,0,0,0,0,0,0,0,0,0,0,0,0,0,0,0,0,0,0,0,0,0,0,0,0,0,0,0,0,0,
0,0,0,0,0,0,0,0,0,0,0,0,0,0,0,0,0,0,0,0,0,0,0,0,0,0,0,0,0,0,0,0,0,0,0,0,
0,0,0,0,0,0,0,0,0,0,0,0,0,0,0,0,0,0,0,0,0,0,0,0,0,0,0,0,0,0,0,0,0,0,0,0,
0,0,0,0,0,0,0,0,0,0,0,0,0,0,0,0,0,0,0,0,0,0,0,0,0,0,0,0,0,0,0,0,0,0,0,0,
0,0,0,0,0,0,0,0,0,0,0,0,0,0,0,0,0,0,0,0,0,0,0,0,0,0,0,0,0,0,0,0,0,0,0,0,
0,0,0,0,0,0,0,0,0,0,0,0,0,0,0,0,0,0,0,0,0,0,0,0,0,0,0,0,0,0,0,0,0,0,0,0,
0,0,0,0,0,0,0,0,0,0,0,0,0,0,0,0,0,0,0,0,0,0,0,0,0,0,0,0,0,0,0,0,0,0,0,0,
0,0,0,0,0,0,0,0,0,0,0,0,0,0,0,0,0,0,0,0,0,0,0,0,0,0,0,0,0,0,0,0,0,0,0,0,
0,0,0,0,0,0,0,0,0,0,0,0,0,0,0,0,0,0,0,0,0,0,0,0,0,0,0,0,0,0,0,0,0,0,0,0,
0,0,0,0,0,0,0,0,0,0,0,0,0,0,0,0,0,0,0,0,0,0,0,0,0,0,0,0,0,0,0,0,0,0,0,0,
0,0,0,0,0,0,0,0,0,0,0,0,0,0,0,0,0,0,0,0,0,0,0,0,0,0,0,0,0,0,0,0,0,0,0,0,
0,0,0,0,0,0,0,0,0,0,0,0,0,0,0,0,0,0,0,0,0,0,0,0,0,0,0,0,0,0,0,0,0,0,0,0,
0,0,0,0,0,0,0,0,0,0,0,0,0,0,0,0,0,0,0,0,0,0,0,0,0,0,0,0,0,0,0,0,0,0,0,0,
0,0,0,0,0,0,0,0,0,0,0,0,0,0,0,0,0,0,0,0,0,0,0,0,0,0,0,0,0,0,0,0,0,0,0,0,
0,0,0,0,0,0,0,0,0,0,0,0,0,0,0,0,0,0,0,0,0,0,0,0,0,0,0,0,0,0,0,0,0,0,0,0,
0,0,0,0,0,0,0,0,0,0,0,0,0,0,0,0,0,0,0,0,0,0,0,0,0,0,0,0,0,0,0,0,0,0,0,0,
0,0,0,0,0,0,0,0,0,0,0,0,0,0,0,0,0,0,0,0,0,0,0,0,0,0,0,0,0,0,0,0,0,0,0,0,
0,0,0,0,0,0,0,0,0,0,0,0,0,0,0,0,0,0,0,0,0,0,0,0,0,0,0,0,0,0,0,0,0,0,0,0,
0,0,0,0,0,0,0,0,0,0,0,0,0,0,0,0,0,0,0,0,0,0,0,0,0,0,0,0,0,0,0,0,0,0,0,0,
0,0,0,0,0,0,0,0,0,0,0,0,0,0,0,0,0,0,0,0,0,0,0,0,0,0,0,0,0,0,0,0,0,0,0,0,
0,0,0,0,0,0,0,0,0,0,0,0,0,0,0,0,0,0,0,0,0,0,0,0,0,0,0,0,0,0,0,0,0,0,0,0,
0,0,0,0,0,0,0,0,0,0,0,0,0,0,0,0,0,0,0,0,0,0,0,0,0,0,0,0,0,0,0,0,0,0,0,0,
0,0,0,0,0,0,0,0,0,0,0,0,0,0,0,0,0,0,0,0,0,0,0,0,0,0,0,0,0,0,0,0,0,0,0,0,
0,0,0,0,0,0,0,0,0,0,0,0,0,0,0,0,0,0,0,0,0,0,0,0,0,0,0,0,0,0,0,0,0,0,0,0,
0,0,0,0,0,0,0,0,0,0,0,0,0,0,0,0,0,0,0,0,0,0,0,0,0,0,0,0,0,0,0,0,0,0,0,0,
0,0,1026,1029,1029,1029,1029,1029,1029,1029,1029,1029,1029,1029,1029,1029,0,0,0,0,1029,1029,1029,1029,1029,1029,1029,1029,1029,1029,1029,1029,1029,1030,0,0,
0,0,0,0,0,0,0,0,0,0,0,0,0,0,0,0,0,0,0,0,0,0,0,0,0,0,0,0,0,0,0,0,0,0,0,0,
0,0,0,0,0,0,0,0,0,0,0,0,0,0,0,0,0,0,0,0,0,0,0,0,0,0,0,0,0,0,0,0,0,0,0,0,
0,0,0,0,0,0,0,0,0,0,0,0,0,0,0,0,0,0,0,0,0,0,0,0,0,0,0,0,0,0,0,0,0,0,0,0
</data>
 </layer>
 <layer id="6" name="Docks" width="36" height="35">
  <data encoding="csv">
0,0,0,0,0,0,0,0,0,0,0,0,0,0,0,0,0,0,0,0,0,0,0,0,0,0,0,0,0,0,0,0,0,0,0,0,
0,0,0,0,0,0,0,0,0,0,0,0,0,0,0,0,0,0,0,0,0,0,0,0,0,0,0,0,0,0,0,0,0,0,0,0,
0,0,0,0,0,0,0,0,0,0,0,0,0,0,0,0,0,3221226190,3221226190,0,0,0,0,0,0,0,0,0,0,0,0,0,0,0,0,0,
0,0,0,0,0,0,0,0,0,0,0,0,0,0,0,0,0,3221225998,3221225998,0,0,0,0,0,0,0,0,0,0,0,0,0,0,0,0,0,
0,0,0,0,0,0,0,0,0,0,0,0,0,0,0,0,0,0,0,0,0,0,0,0,0,0,0,0,0,0,0,0,0,0,0,0,
0,0,0,0,0,0,0,0,0,0,0,0,0,0,0,0,0,0,0,0,0,0,0,0,0,0,0,0,0,0,0,0,0,0,0,0,
0,0,0,0,0,0,0,0,0,0,0,0,0,0,0,0,0,0,0,0,0,0,0,0,0,0,0,0,0,0,0,0,0,0,0,0,
0,0,0,0,0,0,0,0,0,0,0,0,0,0,0,0,0,0,0,0,0,0,0,0,0,0,0,0,0,0,0,0,0,0,0,0,
0,0,0,0,0,0,0,0,0,0,0,0,0,0,0,0,0,0,0,0,0,0,0,0,0,0,0,0,0,0,0,0,0,0,0,0,
0,0,0,0,0,0,0,0,0,0,0,0,0,0,0,0,0,0,0,0,0,0,0,0,0,0,0,0,0,0,0,0,0,0,0,0,
0,0,0,0,0,0,0,0,0,0,0,0,0,0,0,0,0,0,0,0,0,0,0,0,0,0,0,0,0,0,0,0,0,0,0,0,
0,0,0,0,0,0,0,0,0,0,0,0,0,0,0,0,0,0,0,0,0,0,0,0,0,0,0,0,0,0,0,0,0,0,0,0,
0,0,0,0,0,0,0,0,0,0,0,0,0,0,0,0,0,0,0,0,0,0,0,0,0,0,0,0,0,0,0,0,0,0,0,0,
0,0,0,0,0,0,0,0,0,0,0,0,0,0,0,0,0,0,0,0,0,0,0,0,0,0,0,0,0,0,0,0,0,0,0,0,
0,0,0,0,0,0,0,0,0,0,0,0,0,0,0,0,0,0,0,0,0,0,0,0,0,0,0,0,0,0,0,0,0,0,0,0,
0,0,0,0,0,0,0,0,0,0,0,0,0,0,0,0,0,0,0,0,0,0,0,0,0,0,0,0,0,0,0,0,0,0,0,0,
0,0,2684355278,1610613390,0,0,0,0,0,0,0,0,0,0,0,0,0,0,0,0,0,0,0,0,0,0,0,0,0,0,0,0,2684355214,1610613454,0,0,
0,0,2684355278,1610613390,0,0,0,0,0,0,0,0,0,0,0,0,0,0,0,0,0,0,0,0,0,0,0,0,0,0,0,0,2684355214,1610613454,0,0,
0,0,0,0,0,0,0,0,0,0,0,0,0,0,0,0,0,0,0,0,0,0,0,0,0,0,0,0,0,0,0,0,0,0,0,0,
0,0,0,0,0,0,0,0,0,0,0,0,0,0,0,0,0,0,0,0,0,0,0,0,0,0,0,0,0,0,0,0,0,0,0,0,
0,0,0,0,0,0,0,0,0,0,0,0,0,0,0,0,0,0,0,0,0,0,0,0,0,0,0,0,0,0,0,0,0,0,0,0,
0,0,0,0,0,0,0,0,0,0,0,0,0,0,0,0,0,0,0,0,0,0,0,0,0,0,0,0,0,0,0,0,0,0,0,0,
0,0,0,0,0,0,0,0,0,0,0,0,0,0,0,0,0,0,0,0,0,0,0,0,0,0,0,0,0,0,0,0,0,0,0,0,
0,0,0,0,0,0,0,0,0,0,0,0,0,0,0,0,0,0,0,0,0,0,0,0,0,0,0,0,0,0,0,0,0,0,0,0,
0,0,0,0,0,0,0,0,0,0,0,0,0,0,0,0,0,0,0,0,0,0,0,0,0,0,0,0,0,0,0,0,0,0,0,0,
0,0,0,0,0,0,0,0,0,0,0,0,0,0,0,0,0,0,0,0,0,0,0,0,0,0,0,0,0,0,0,0,0,0,0,0,
0,0,0,0,0,0,0,0,0,0,0,0,0,0,0,0,0,0,0,0,0,0,0,0,0,0,0,0,0,0,0,0,0,0,0,0,
0,0,0,0,0,0,0,0,0,0,0,0,0,0,0,0,0,0,0,0,0,0,0,0,0,0,0,0,0,0,0,0,0,0,0,0,
0,0,0,0,0,0,0,0,0,0,0,0,0,0,0,0,0,0,0,0,0,0,0,0,0,0,0,0,0,0,0,0,0,0,0,0,
0,0,0,0,0,0,0,0,0,0,0,0,0,0,0,0,0,0,0,0,0,0,0,0,0,0,0,0,0,0,0,0,0,0,0,0,
0,0,0,0,0,0,0,0,0,0,0,0,0,0,0,0,0,0,0,0,0,0,0,0,0,0,0,0,0,0,0,0,0,0,0,0,
0,0,0,0,0,0,0,0,0,0,0,0,0,0,0,0,0,526,526,0,0,0,0,0,0,0,0,0,0,0,0,0,0,0,0,0,
0,0,0,0,0,0,0,0,0,0,0,0,0,0,0,0,0,718,718,0,0,0,0,0,0,0,0,0,0,0,0,0,0,0,0,0,
0,0,0,0,0,0,0,0,0,0,0,0,0,0,0,0,0,0,0,0,0,0,0,0,0,0,0,0,0,0,0,0,0,0,0,0,
0,0,0,0,0,0,0,0,0,0,0,0,0,0,0,0,0,0,0,0,0,0,0,0,0,0,0,0,0,0,0,0,0,0,0,0
</data>
 </layer>
 <layer id="7" name="Collisions" width="36" height="35" visible="0">
  <data encoding="csv">
4097,4097,4097,4097,4097,4097,4097,4097,4097,4097,4097,4097,4097,4097,4097,4097,4097,4097,4097,4097,4097,4097,4097,4097,4097,4097,4097,4097,4097,4097,4097,4097,4097,4097,4097,4097,
4097,4097,4097,4097,4097,4097,4097,4097,4097,4097,4097,4097,4097,4097,4097,4097,4097,4097,4097,4097,4097,4097,4097,4097,4097,4097,4097,4097,4097,4097,4097,4097,4097,4097,4097,4097,
4097,4097,4097,4097,4097,4097,4097,4097,4097,4097,4097,4097,4097,4097,4097,4097,4097,0,0,4097,4097,4097,4097,4097,4097,4097,4097,4097,4097,4097,4097,4097,4097,4097,4097,4097,
4097,4097,4097,4097,4097,4097,4097,0,0,0,0,0,0,0,0,0,4097,0,0,4097,0,0,0,0,0,0,0,0,0,4097,4097,4097,4097,4097,4097,4097,
4097,4097,4097,4097,0,4097,4097,0,0,0,0,0,0,0,0,0,4097,0,0,4097,0,0,0,0,0,0,0,0,0,4097,4097,0,4097,4097,4097,4097,
4097,4097,4097,0,0,0,0,0,0,0,0,0,0,0,0,0,4097,0,0,4097,0,0,0,0,0,0,0,0,0,0,0,0,0,4097,4097,4097,
4097,4097,4097,0,0,0,0,0,0,0,0,0,0,0,0,0,4097,0,0,4097,0,0,0,0,0,0,0,0,0,0,0,0,0,4097,4097,4097,
4097,4097,4097,0,0,0,0,0,0,0,0,0,0,0,0,0,4097,0,0,4097,0,0,0,0,0,0,0,0,0,0,0,0,0,4097,4097,4097,
4097,4097,4097,0,0,0,0,0,0,0,0,0,0,0,0,0,4097,0,0,4097,0,0,0,0,0,0,0,0,0,0,0,0,0,4097,4097,4097,
4097,4097,4097,0,0,0,0,0,0,0,0,0,0,0,0,0,4097,0,0,4097,0,0,0,0,0,0,0,0,0,0,0,0,0,4097,4097,4097,
4097,4097,4097,0,0,0,0,0,0,0,0,0,0,0,0,0,4097,0,0,4097,0,0,0,0,0,0,0,0,0,0,0,0,0,4097,4097,4097,
4097,4097,4097,0,0,0,0,0,0,0,0,0,0,0,0,0,4097,0,0,4097,0,0,0,0,0,0,0,0,0,0,0,0,0,4097,4097,4097,
4097,4097,4097,0,0,0,0,0,0,0,0,0,0,0,0,0,4097,0,0,4097,0,0,0,0,0,0,0,0,0,0,0,0,0,4097,4097,4097,
4097,4097,4097,0,0,0,0,0,0,0,0,0,0,0,0,0,4097,0,0,4097,0,0,0,0,0,0,0,0,0,0,0,0,0,4097,4097,4097,
4097,4097,4097,0,0,0,0,0,0,0,0,0,0,0,0,0,0,0,0,0,0,0,0,0,0,0,0,0,0,0,0,0,0,4097,4097,4097,
4097,4097,4097,4097,4097,4097,4097,4097,4097,4097,4097,4097,4097,4097,4097,0,0,0,0,0,0,4097,4097,4097,4097,4097,4097,4097,4097,4097,4097,4097,4097,4097,4097,4097,
4097,4097,0,0,0,0,0,0,0,0,0,0,0,0,0,0,0,0,0,0,0,0,0,0,0,0,0,0,0,0,0,0,0,0,4097,4097,
4097,4097,0,0,0,0,0,0,0,0,0,0,0,0,0,0,0,0,0,0,0,0,0,0,0,0,0,0,0,0,0,0,0,0,4097,4097,
4097,4097,4097,4097,4097,4097,4097,4097,4097,4097,4097,4097,4097,4097,4097,0,0,0,0,0,0,4097,4097,4097,4097,4097,4097,4097,4097,4097,4097,4097,4097,4097,4097,4097,
4097,4097,4097,0,0,0,0,0,0,0,0,0,0,0,0,0,0,0,0,0,0,0,0,0,0,0,0,0,0,0,0,0,0,4097,4097,4097,
4097,4097,4097,0,0,0,0,0,0,0,0,0,0,0,0,0,4097,0,0,4097,0,0,0,0,0,0,0,0,0,0,0,0,0,4097,4097,4097,
4097,4097,4097,0,0,0,0,0,0,0,0,0,0,0,0,0,4097,0,0,4097,0,0,0,0,0,0,0,0,0,0,0,0,0,4097,4097,4097,
4097,4097,4097,0,0,0,0,0,0,0,0,0,0,0,0,0,4097,0,0,4097,0,0,0,0,0,0,0,0,0,0,0,0,0,4097,4097,4097,
4097,4097,4097,0,0,0,0,0,0,0,0,0,0,0,0,0,4097,0,0,4097,0,0,0,0,0,0,0,0,0,0,0,0,0,4097,4097,4097,
4097,4097,4097,0,0,0,0,0,0,0,0,0,0,0,0,0,4097,0,0,4097,0,0,0,0,0,0,0,0,0,0,0,0,0,4097,4097,4097,
4097,4097,4097,0,0,0,0,0,0,0,0,0,0,0,0,0,4097,0,0,4097,0,0,0,0,0,0,0,0,0,0,0,0,0,4097,4097,4097,
4097,4097,4097,0,0,0,0,0,0,0,0,0,0,0,0,0,4097,0,0,4097,0,0,0,0,0,0,0,0,0,0,0,0,0,4097,4097,4097,
4097,4097,4097,0,0,0,0,0,0,0,0,0,0,0,0,0,4097,0,0,4097,0,0,0,0,0,0,0,0,0,0,0,0,0,4097,4097,4097,
4097,4097,4097,0,0,0,0,0,0,0,0,0,0,0,0,0,4097,0,0,4097,0,0,0,0,0,0,0,0,0,0,0,0,0,4097,4097,4097,
4097,4097,4097,4097,0,4097,4097,0,0,0,0,0,0,0,0,0,4097,0,0,4097,0,0,0,0,0,0,0,0,0,4097,4097,4097,4097,4097,4097,4097,
4097,4097,4097,4097,4097,4097,4097,0,0,0,0,0,0,0,0,0,4097,0,0,4097,0,0,0,0,0,0,0,0,0,4097,4097,4097,4097,4097,4097,4097,
4097,4097,4097,4097,4097,4097,4097,4097,4097,4097,4097,4097,4097,4097,4097,4097,4097,0,0,4097,4097,4097,4097,4097,4097,4097,4097,4097,4097,4097,4097,4097,4097,4097,4097,4097,
4097,4097,4097,4097,4097,4097,4097,4097,4097,4097,4097,4097,4097,4097,4097,4097,4097,0,0,4097,4097,4097,4097,4097,4097,4097,4097,4097,4097,4097,4097,4097,4097,4097,4097,4097,
4097,4097,4097,4097,4097,4097,4097,4097,4097,4097,4097,4097,4097,4097,4097,4097,4097,4097,4097,4097,4097,4097,4097,4097,4097,4097,4097,4097,4097,4097,4097,4097,4097,4097,4097,4097,
4097,4097,4097,4097,4097,4097,4097,4097,4097,4097,4097,4097,4097,4097,4097,4097,4097,4097,4097,4097,4097,4097,4097,4097,4097,4097,4097,4097,4097,4097,4097,4097,4097,4097,4097,4097
</data>
 </layer>
</map>
